X: 42
P: Longways for as many as will
M: 6/4
L: 1/4
K: Dm
[| f/e/ |\
f>ef gab | a3 f2c/B/ | ABc G>FE | F3- F2G/F/ |\
E>FG ABc | =B>cd ^cde | (fA)f f>ed | d3- d2 |]

